assets/Man cook/Medium-Dark/Flat/man_cook_flat_medium-dark.svg

<svg width="32" height="32" viewBox="0 0 32 32" fill="none" xmlns="http://www.w3.org/2000/svg">
<path d="M22.98 18L20.5 17.5L19 18L21 23L23 30H27V26.4983C27 23.0769 25.4261 20.0167 22.98 18Z" fill="#E6E6E6"/>
<path d="M9 30L11 24L9 18C6.55447 20.0279 5 23.0848 5 26.4983V30H9Z" fill="#E6E6E6"/>
<path d="M9 18L14 17L19 18C21.1767 18 23 19.796 23 22.0033V30H9V18Z" fill="#F4F4F4"/>
<path d="M22.9844 18H17.5C18.1748 18.4721 18.59 19.2351 18.59 20.12V21.79C17.1518 21.79 15.9829 20.623 15.98 19.1855C15.977 20.623 14.8082 21.79 13.37 21.79V20.12C13.37 19.2351 13.8252 18.4721 14.5 18H9L9.00339 17.9898C10.8995 16.4176 13.3291 15.47 15.98 15.47C18.6433 15.47 21.0845 16.4203 22.9844 18Z" fill="#F92F60"/>
<path d="M13 10.5C13 11.3284 12.3284 12 11.5 12C10.6716 12 10 11.3284 10 10.5C10 9.67157 10.6716 9 11.5 9C12.3284 9 13 9.67157 13 10.5Z" fill="#8B5C56"/>
<path d="M22 10.5C22 11.3284 21.3284 12 20.5 12C19.6716 12 19 11.3284 19 10.5C19 9.67157 19.6716 9 20.5 9C21.3284 9 22 9.67157 22 10.5Z" fill="#8B5C56"/>
<path d="M15.581 3.65991C12.9273 3.65991 10.8223 5.90095 11.0119 8.52871L11.381 13.814C11.5406 15.47 12.8575 16.6599 14.4637 16.6599H17.5363C19.1425 16.6599 20.4494 15.4799 20.619 13.814L20.9881 8.52871C21.1777 5.89103 19.0727 3.65991 16.419 3.65991H15.581V3.65991Z" fill="#966661"/>
<path d="M12.2299 10.3699C12.3799 9.78986 12.8999 9.35986 13.5299 9.35986C14.1799 9.35986 14.7199 9.81986 14.8399 10.4299C14.8699 10.5699 14.7599 10.6899 14.6199 10.6899H12.4899C12.3199 10.6899 12.1899 10.5299 12.2299 10.3699Z" fill="white"/>
<path d="M19.41 10.3699C19.26 9.78986 18.74 9.35986 18.11 9.35986C17.46 9.35986 16.92 9.81986 16.8 10.4399C16.77 10.5799 16.88 10.6999 17.02 10.6999H19.15C19.32 10.6999 19.45 10.5399 19.41 10.3699Z" fill="white"/>
<path d="M12.87 10.4699C12.87 9.98986 13.26 9.60986 13.73 9.60986C14.2 9.60986 14.58 9.98986 14.58 10.4699C14.58 10.5499 14.57 10.6299 14.55 10.6999H12.9C12.88 10.6199 12.87 10.5499 12.87 10.4699Z" fill="#7D4533"/>
<path d="M18.7701 10.4699C18.7701 9.98986 18.3801 9.60986 17.9101 9.60986C17.4401 9.60986 17.0601 9.98986 17.0601 10.4699C17.0601 10.5499 17.0701 10.6299 17.0901 10.6999H18.7401C18.7601 10.6199 18.7701 10.5499 18.7701 10.4699Z" fill="#7D4533"/>
<path d="M13.73 9.97998C14 9.97998 14.22 10.2 14.22 10.47C14.22 10.55 14.2 10.62 14.16 10.7H13.3C13.26 10.63 13.24 10.55 13.24 10.47C13.24 10.2 13.46 9.97998 13.73 9.97998Z" fill="black"/>
<path d="M17.9201 9.97998C17.6501 9.97998 17.4301 10.2 17.4301 10.47C17.4301 10.55 17.4501 10.62 17.4901 10.7H18.3501C18.3901 10.63 18.4101 10.55 18.4101 10.47C18.4101 10.2 18.1901 9.97998 17.9201 9.97998Z" fill="black"/>
<path d="M13.5899 10.13C13.5899 10.2128 13.5228 10.28 13.4399 10.28C13.3571 10.28 13.2899 10.2128 13.2899 10.13C13.2899 10.0471 13.3571 9.97998 13.4399 9.97998C13.5228 9.97998 13.5899 10.0471 13.5899 10.13Z" fill="white"/>
<path d="M17.8 10.13C17.8 10.2128 17.7328 10.28 17.65 10.28C17.5672 10.28 17.5 10.2128 17.5 10.13C17.5 10.0471 17.5672 9.97998 17.65 9.97998C17.7328 9.97998 17.8 10.0471 17.8 10.13Z" fill="white"/>
<path d="M20 7.09311V6.99994C20.298 7.00822 20.5939 7.00177 20.8895 6.99533C21.2588 6.98728 21.6277 6.97924 22 6.99994L21.4811 9.51547C21.427 9.78565 21.1568 9.99062 20.8432 9.99994C20.8432 9.99994 20.9081 9.22665 20.9405 8.72354C20.9622 8.47199 20.8432 8.22043 20.6162 8.04342L20.4108 7.88503C20.1514 7.68006 20 7.39124 20 7.09311Z" fill="#2D242D"/>
<path d="M10.5269 9.52141L10 6.99994C10.227 6.99994 10.4516 7.00097 10.675 7.002C11.1182 7.00404 11.5567 7.00606 12 6.99994V7.12877C12 7.43245 11.8495 7.70853 11.5914 7.91098L11.3978 8.05822C11.172 8.22386 11.0538 8.47233 11.0753 8.73C11.1075 9.22693 11.172 9.99994 11.172 9.99994C10.8602 9.99074 10.5806 9.78828 10.5269 9.52141Z" fill="#2D242D"/>
<path d="M18.7799 8.87996C18.8799 8.95996 18.9899 8.98996 19.0999 8.98996C19.2599 8.98996 19.4199 8.91996 19.5199 8.78996C19.6899 8.55996 19.6499 8.22996 19.4199 8.04996C19.3899 8.01996 18.5999 7.41996 17.4499 7.55996C17.1599 7.58996 16.9599 7.84996 16.9899 8.13996C17.0199 8.42996 17.2899 8.62996 17.5699 8.59996C18.2525 8.52196 18.7258 8.84327 18.7768 8.87788L18.7799 8.87996Z" fill="#372128"/>
<path d="M12.12 8.77994C12.22 8.91994 12.38 8.98994 12.54 8.98994C12.65 8.98994 12.76 8.94994 12.86 8.87994C12.86 8.87994 12.8649 8.87697 12.8705 8.87332C12.9469 8.82391 13.4087 8.52543 14.07 8.59994C14.35 8.63994 14.62 8.42994 14.65 8.13994C14.68 7.85994 14.48 7.58994 14.19 7.55994C13.05 7.42994 12.25 8.01994 12.22 8.04994C11.99 8.22994 11.95 8.54994 12.12 8.77994Z" fill="#372128"/>
<path d="M15.5906 10.2819L15.0271 12.0289C14.9101 12.3843 15.1866 12.75 15.58 12.75H16.42C16.8134 12.75 17.0899 12.3843 16.9729 12.0289L16.4094 10.2819C16.2818 9.90605 15.7182 9.90605 15.5906 10.2819Z" fill="#75443E"/>
<path d="M16.0005 13.6457C15.45 13.6457 14.9301 13.5069 14.4918 13.2719C14.3389 13.1865 14.186 13.368 14.2777 13.5175C14.6447 14.1049 15.2767 14.5 16.0005 14.5C16.7243 14.5 17.3563 14.1049 17.7233 13.5175C17.8151 13.368 17.652 13.1972 17.5093 13.2719C17.0607 13.5069 16.551 13.6457 16.0005 13.6457Z" fill="#990838"/>
<path d="M10.57 2H21.39C23.08 2 23.92 4.04 22.73 5.23L22 6V7C22.01 7.2 21.8 7.38 21.6 7.38H10.35C10.15 7.38 10 7.2 10 7V6L9.23 5.23C8.04 4.04 8.88 2 10.57 2Z" fill="#E6E6E6"/>
<path d="M15.52 6.02992V3.62992C15.52 3.37992 15.72 3.16992 15.98 3.16992C16.23 3.16992 16.44 3.36992 16.44 3.62992V6.02992H15.52Z" fill="#D3D3D3"/>
<path d="M13.39 6.02993H12.48L11.68 3.74993C11.58 3.46993 11.79 3.17993 12.09 3.17993C12.27 3.17993 12.44 3.29993 12.5 3.46993L13.39 6.02993Z" fill="#D3D3D3"/>
<path d="M18.5599 6.02993H19.4699L20.2699 3.74993C20.3699 3.46993 20.1599 3.17993 19.8599 3.17993C19.6799 3.17993 19.5099 3.29993 19.4499 3.46993L18.5599 6.02993Z" fill="#D3D3D3"/>
<path d="M20.3101 21.6099C20.7243 21.6099 21.0601 21.2741 21.0601 20.8599C21.0601 20.4457 20.7243 20.1099 20.3101 20.1099C19.8958 20.1099 19.5601 20.4457 19.5601 20.8599C19.5601 21.2741 19.8958 21.6099 20.3101 21.6099Z" fill="#D3D3D3"/>
<path d="M20.3101 25.2399C20.7243 25.2399 21.0601 24.9041 21.0601 24.4899C21.0601 24.0757 20.7243 23.7399 20.3101 23.7399C19.8958 23.7399 19.5601 24.0757 19.5601 24.4899C19.5601 24.9041 19.8958 25.2399 20.3101 25.2399Z" fill="#D3D3D3"/>
<path d="M20.3101 28.8799C20.7243 28.8799 21.0601 28.5442 21.0601 28.1299C21.0601 27.7157 20.7243 27.3799 20.3101 27.3799C19.8958 27.3799 19.5601 27.7157 19.5601 28.1299C19.5601 28.5442 19.8958 28.8799 20.3101 28.8799Z" fill="#D3D3D3"/>
<path d="M27 23C27.55 23 28 23.4103 28 23.9119V26H26V23.9119C26.01 23.4103 26.45 23 27 23Z" fill="#8B5C56"/>
<path d="M27.3201 16.16C27.0001 15.44 26.2801 14.98 25.4901 14.98C24.7001 14.98 23.9801 15.44 23.6601 16.16C23.2001 17.17 23.2001 18.33 23.6601 19.35C23.8101 19.68 24.0501 19.96 24.3301 20.17C24.6001 20.36 24.7701 20.67 24.7701 21.01V27.97C24.7701 28.36 25.0801 28.7 25.4701 28.71C25.8701 28.72 26.2001 28.39 26.2001 27.99V21C26.2001 20.67 26.3701 20.36 26.6401 20.16C26.9301 19.96 27.1601 19.68 27.3101 19.34C27.7701 18.33 27.7701 17.17 27.3201 16.16Z" fill="#F3C07B"/>
<path d="M25.49 15.6499C24.89 15.6499 24.35 15.9999 24.11 16.5399C23.77 17.2999 23.77 18.1799 24.11 18.9399C24.35 19.4799 24.89 19.8299 25.49 19.8299C26.09 19.8299 26.63 19.4799 26.87 18.9399C27.21 18.1799 27.21 17.2999 26.87 16.5399C26.62 15.9999 26.08 15.6499 25.49 15.6499Z" fill="#F3AD61"/>
<path d="M23.5091 25.5C23.5182 25.1 23.837 24.75 24.2105 24.75H27.2075C27.6447 24.75 28 25.14 28 25.62V29.13C28 29.61 27.6447 30 27.2075 30H24.2105C23.837 30 23.5182 29.69 23.5091 29.28C23.5 29.01 23.6184 28.77 23.8097 28.63C23.6184 28.5 23.5 28.27 23.5 28.01C23.5 27.75 23.6275 27.52 23.8097 27.39C23.6184 27.26 23.5 27.03 23.5 26.77C23.5 26.51 23.6275 26.28 23.8097 26.15C23.6275 26.01 23.5 25.77 23.5091 25.5Z" fill="#966661"/>
</svg>

<svg xmlns="http://www.w3.org/2000/svg" width="32" height="32" fill="none"><path fill="#E6E6E6" d="m22.98 18-2.48-.5-1.5.5 2 5 2 7h4v-3.502c0-3.421-1.574-6.481-4.02-8.498ZM9 30l2-6-2-6a11.015 11.015 0 0 0-4 8.498V30h4Z"/><path fill="#F4F4F4" d="m9 18 5-1 5 1c2.177 0 4 1.796 4 4.003V30H9V18Z"/><path fill="#F92F60" d="M22.984 18H17.5a2.548 2.548 0 0 1 1.09 2.12v1.67a2.612 2.612 0 0 1-2.61-2.604 2.612 2.612 0 0 1-2.61 2.604v-1.67c0-.885.455-1.648 1.13-2.12H9l.003-.01a10.893 10.893 0 0 1 6.977-2.52c2.663 0 5.104.95 7.004 2.53Z"/><path fill="#8B5C56" d="M13 10.5a1.5 1.5 0 1 1-3 0 1.5 1.5 0 0 1 3 0ZM22 10.5a1.5 1.5 0 1 1-3 0 1.5 1.5 0 0 1 3 0Z"/><path fill="#966661" d="M15.581 3.66c-2.654 0-4.759 2.24-4.57 4.869l.37 5.285c.16 1.656 1.476 2.846 3.083 2.846h3.072c1.606 0 2.913-1.18 3.083-2.846l.37-5.285c.189-2.638-1.916-4.87-4.57-4.87h-.838Z"/><path fill="#fff" d="M12.23 10.37c.15-.58.67-1.01 1.3-1.01.65 0 1.19.46 1.31 1.07.03.14-.08.26-.22.26h-2.13c-.17 0-.3-.16-.26-.32ZM19.41 10.37c-.15-.58-.67-1.01-1.3-1.01-.65 0-1.19.46-1.31 1.08-.03.14.08.26.22.26h2.13c.17 0 .3-.16.26-.33Z"/><path fill="#7D4533" d="M12.87 10.47c0-.48.39-.86.86-.86s.85.38.85.86c0 .08-.01.16-.03.23H12.9a.908.908 0 0 1-.03-.23ZM18.77 10.47a.86.86 0 0 0-.86-.86c-.47 0-.85.38-.85.86 0 .08.01.16.03.23h1.65c.02-.08.03-.15.03-.23Z"/><path fill="#000" d="M13.73 9.98c.27 0 .49.22.49.49 0 .08-.02.15-.06.23h-.86a.465.465 0 0 1-.06-.23c0-.27.22-.49.49-.49ZM17.92 9.98a.49.49 0 0 0-.49.49c0 .08.02.15.06.23h.86c.04-.07.06-.15.06-.23a.49.49 0 0 0-.49-.49Z"/><path fill="#fff" d="M13.59 10.13a.15.15 0 1 1-.3 0 .15.15 0 0 1 .3 0ZM17.8 10.13a.15.15 0 1 1-.3 0 .15.15 0 0 1 .3 0Z"/><path fill="#2D242D" d="M20 7.093V7c.298.008.594.002.89-.005.369-.008.738-.016 1.11.005l-.519 2.515c-.054.27-.324.476-.638.485 0 0 .065-.773.098-1.276.021-.252-.098-.504-.325-.68l-.205-.159C20.15 7.68 20 7.391 20 7.093ZM10.527 9.521 10 7l.675.002c.443.002.882.004 1.325-.002v.129c0 .303-.15.58-.409.782l-.193.147a.753.753 0 0 0-.323.672c.033.497.097 1.27.097 1.27-.312-.01-.591-.212-.645-.479Z"/><path fill="#372128" d="M18.78 8.88a.53.53 0 0 0 .74-.09c.17-.23.13-.56-.1-.74-.03-.03-.82-.63-1.97-.49a.52.52 0 0 0-.46.58c.03.29.3.49.58.46.683-.078 1.156.243 1.207.278l.003.002ZM12.12 8.78c.1.14.26.21.42.21.11 0 .22-.04.32-.11l.01-.007a1.85 1.85 0 0 1 1.2-.273c.28.04.55-.17.58-.46a.526.526 0 0 0-.46-.58c-1.14-.13-1.94.46-1.97.49-.23.18-.27.5-.1.73Z"/><path fill="#75443E" d="m15.59 10.282-.563 1.747c-.117.355.16.721.553.721h.84c.393 0 .67-.366.553-.721l-.564-1.747c-.127-.376-.69-.376-.818 0Z"/><path fill="#990838" d="M16 13.646c-.55 0-1.07-.14-1.508-.374-.153-.085-.306.096-.214.245.367.588.999.983 1.722.983.724 0 1.356-.395 1.723-.982.092-.15-.071-.32-.214-.246a3.234 3.234 0 0 1-1.509.374Z"/><path fill="#E6E6E6" d="M10.57 2h10.82c1.69 0 2.53 2.04 1.34 3.23L22 6v1c.01.2-.2.38-.4.38H10.35c-.2 0-.35-.18-.35-.38V6l-.77-.77C8.04 4.04 8.88 2 10.57 2Z"/><path fill="#D3D3D3" d="M15.52 6.03v-2.4c0-.25.2-.46.46-.46.25 0 .46.2.46.46v2.4h-.92ZM13.39 6.03h-.91l-.8-2.28c-.1-.28.11-.57.41-.57.18 0 .35.12.41.29l.89 2.56ZM18.56 6.03h.91l.8-2.28c.1-.28-.11-.57-.41-.57-.18 0-.35.12-.41.29l-.89 2.56ZM20.31 21.61a.75.75 0 1 0 0-1.5.75.75 0 0 0 0 1.5ZM20.31 25.24a.75.75 0 1 0 0-1.5.75.75 0 0 0 0 1.5ZM20.31 28.88a.75.75 0 1 0 0-1.5.75.75 0 0 0 0 1.5Z"/><path fill="#8B5C56" d="M27 23c.55 0 1 .41 1 .912V26h-2v-2.088c.01-.502.45-.912 1-.912Z"/><path fill="#F3C07B" d="M27.32 16.16a2 2 0 0 0-1.83-1.18 2 2 0 0 0-1.83 1.18 3.86 3.86 0 0 0 0 3.19c.15.33.39.61.67.82.27.19.44.5.44.84v6.96c0 .39.31.73.7.74.4.01.73-.32.73-.72V21c0-.33.17-.64.44-.84.29-.2.52-.48.67-.82.46-1.01.46-2.17.01-3.18Z"/><path fill="#F3AD61" d="M25.49 15.65c-.6 0-1.14.35-1.38.89-.34.76-.34 1.64 0 2.4.24.54.78.89 1.38.89.6 0 1.14-.35 1.38-.89.34-.76.34-1.64 0-2.4-.25-.54-.79-.89-1.38-.89Z"/><path fill="#966661" d="M23.51 25.5c.008-.4.327-.75.7-.75h2.997c.438 0 .793.39.793.87v3.51c0 .48-.355.87-.793.87H24.21c-.373 0-.692-.31-.7-.72-.01-.27.108-.51.3-.65a.74.74 0 0 1-.31-.62c0-.26.128-.49.31-.62a.74.74 0 0 1-.31-.62c0-.26.128-.49.31-.62a.79.79 0 0 1-.3-.65Z"/></svg>
